X: 5
T: The Green Groves Of Erin
R: reel
M: 4/4
L: 1/8
K: Amix
|:A2 cA EAcA|G2 ga gedB|A2 cA eAcA|BGEF GABG|
A2 cA EAcA|G2 ga gedB|A2 cA eAcA| BGEF GABd:|
|:ea a2 ea a2|eg g2 eg g2|ea a2 ea a2|egfa ge d2|
ea a2 ba a2|egfa g3e |dega bgag|egfa gedB:|


Tune 41	Setting 12459

